X:303
%%etbk:tnset id:94,pos:2,rep:3x,ant:
%%etbk:wsite http://www.thesession.org/tunes/display/771
%%etbk:skill ?
%%etbk:pldat 2013-11-06T17:40,2013-11-04T18:28,2013-05-07T18:26,2013-05-01T16:05
T: Carraroe, The
Z: Piano Box Version by Martin Fleischmann
H: Created 2013-02-19 /  Last Modified 2013-02-19
M: 6/8
L: 1/8
R: jig
K: Dmaj
"D"!1!D !3!(3D!2!D!1!D  !2!F2!1!A | !3!d!5!fe !3!d2!1!A | {d}!2!B!1!AA !1!A!2!d!3!f | !5!afd "A"!2!!5!e3 | 
"D"!1!D!2!D!1!D !2!F2!1!A | !3!d!5!fe !3!d2!1!A | !2!BBB !1!A!2!F!1!A|1 !4!d!1!A!2!F "A"!1!E2F:|2 !4!d!1!A!2!F "A"!1!E2!4!d|
"D"!1!d!2!f!4!a !4!a!2!f!4!a | "A"!5!b!3!g!2!e e!1!d!2!B | "D"!1!d!2!f!4!a !4!a!2!f!2!a | "A"!5!b!3!g!2!e !2!eee | 
"D"!1!d!2!f!4!a !4!a!2!f!4!a | "A"!5!b!3!g!2!e e!1!d!2!B | "D"!4!d2!2!B !1!A!2!F!1!A|1 "A"!4!d!1!A!2!F !1!E2!4!d:|2 "A"!4!d!1!A!2!F !1!E2F||
